X: 14166
T: From Hook Head To Iona
R: jig
M: 6/8
K: Gmajor
|:G2 g fed|edB dBA|GG/G/G EGD|EFG FGA|
G/A/G g fed|edB dBA|GG/G/G BAG|1 AGF GBA:|2 AGF GAB||
|:c/d/c A B/d/B G|ABA GED|~G2 G EGD|
[1 EFG FGA|c/d/c A B/d/B G|ABA GED|GG/G/ G BAG|AGF G A/_B/=B:|
[2 EFG A2 B|G2 g fed|edB dBA|GG/G/ G BAG|AGF G3||

